X: 11512
T: Eddie Kelly's
R: reel
M: 4/4
K: Dminor
|:AGEC D3C|A,DDC A,DDC|DEFE F3E|FAfe d3c|
AGEC A,3=B,|C3D EGc=B|dfed cGAc|BGFE FD D2:|
|:fdd^cd3e|fd ~d2 fdeg|fdd^cd3f|eg~g2 ecce|
|:fdd^cd3f|ea ~a2 gedg|ecc=B ~c3 A|BGFE FD D2:|

